src/assets/logo.svg

<svg width="198" height="32" viewBox="0 0 198 32" fill="none" xmlns="http://www.w3.org/2000/svg">
<path d="M9.51855 9.84724V22.3203H21.9916V9.84724H9.51855Z" fill="black"/>
<path d="M24.9658 1.31299H31.5109V31.5996H24.9658V1.31299Z" fill="black"/>
<path d="M43.5211 11.7509V14.9118C43.9558 14.5916 44.3642 14.2371 44.7422 13.8516C45.2305 13.3729 45.7515 12.9287 46.3013 12.5222C47.3991 11.7801 48.683 11.3605 50.0072 11.311C51.0604 11.3578 52.0812 11.689 52.9613 12.2695C54.0226 12.9085 54.9067 14.0431 55.6135 15.6733C56.8455 14.1043 58.049 12.9851 59.2241 12.3154C60.2126 11.7015 61.3437 11.3554 62.5065 11.311C64.3052 11.311 65.8283 12.0539 67.0756 13.5398C68.3477 15.084 69.015 17.038 68.9531 19.0378V31.5995H63.0448V20.5903C63.0761 19.5945 62.7579 18.619 62.1454 17.8331C61.8974 17.489 61.5716 17.2082 61.1946 17.0137C60.8176 16.8192 60.4 16.7165 59.9758 16.7138C59.4714 16.7164 58.9739 16.8315 58.5197 17.0507C58.0654 17.2699 57.6658 17.5876 57.3499 17.9808C56.6135 18.8149 56.2164 19.8948 56.2371 21.0072V31.5995H50.3748V20.8661C50.4079 19.8184 50.0863 18.7902 49.4623 17.948C49.219 17.5877 48.8924 17.2915 48.51 17.0846C48.1277 16.8777 47.701 16.7663 47.2664 16.7598C46.7578 16.7653 46.2571 16.8863 45.8021 17.1138C45.3472 17.3412 44.95 17.6692 44.6404 18.0728C43.9011 18.9448 43.5074 20.0579 43.5343 21.2009V31.5995H37.5669V11.7509H43.5211Z" fill="black"/>
<path d="M80.9566 11.7509V14.9118C81.3912 14.5916 81.7996 14.2371 82.1776 13.8516C82.6644 13.3713 83.1855 12.927 83.7367 12.5222C84.8331 11.7796 86.116 11.3599 87.4393 11.311C88.4926 11.357 89.5137 11.6883 90.3934 12.2695C91.4569 12.9085 92.3421 14.0431 93.0489 15.6733C94.2809 14.1043 95.4844 12.9851 96.6595 12.3154C97.6483 11.7024 98.7793 11.3563 99.9419 11.311C101.745 11.311 103.268 12.0539 104.511 13.5398C105.754 15.0256 106.378 16.8528 106.382 19.0214V31.5995H100.474V20.5903C100.505 19.5945 100.187 18.619 99.5742 17.8331C99.3262 17.489 99.0005 17.2082 98.6234 17.0137C98.2464 16.8192 97.8288 16.7165 97.4046 16.7138C96.9002 16.7164 96.4028 16.8315 95.9485 17.0507C95.4942 17.2699 95.0946 17.5876 94.7787 17.9808C94.0447 18.8159 93.65 19.8956 93.6725 21.0072V31.5995H87.8102V20.8661C87.8433 19.8184 87.5217 18.7902 86.8977 17.948C86.6529 17.5854 86.3236 17.2878 85.9382 17.0808C85.5528 16.8738 85.1228 16.7637 84.6853 16.7598C84.1767 16.765 83.6759 16.8859 83.221 17.1134C82.766 17.3409 82.3688 17.669 82.0594 18.0728C81.32 18.9448 80.9264 20.0579 80.9533 21.2009V31.5995H74.999V11.7509H80.9566Z" fill="black"/>
<path d="M111.628 21.7196C111.628 18.656 112.605 16.1559 114.559 14.2193C116.513 12.2827 119.021 11.3133 122.082 11.3111C123.416 11.2797 124.742 11.5262 125.975 12.0347C127.209 12.5433 128.323 13.3029 129.247 14.2653C131.18 16.2347 132.146 18.6845 132.146 21.6146C132.146 24.6015 131.18 27.0786 129.247 29.0459C127.315 31.0131 124.896 31.9978 121.99 32C118.708 32 116.162 30.9584 114.352 28.8752C112.585 26.9123 111.613 24.3608 111.628 21.7196ZM126.329 21.7196C126.347 20.4278 125.878 19.1766 125.016 18.214C124.649 17.7514 124.182 17.3767 123.651 17.1172C123.121 16.8577 122.538 16.7199 121.947 16.7139C121.356 16.7125 120.772 16.8374 120.233 17.0803C119.694 17.3231 119.213 17.6783 118.823 18.1221C117.959 19.0283 117.487 20.2383 117.51 21.4898C117.478 22.8265 117.946 24.127 118.823 25.1366C119.195 25.6016 119.667 25.9776 120.204 26.2371C120.74 26.4966 121.328 26.6331 121.924 26.6365C122.52 26.64 123.109 26.5104 123.649 26.2571C124.188 26.0039 124.665 25.6334 125.043 25.1727C125.895 24.2271 126.355 22.9924 126.329 21.7196Z" fill="black"/>
<path d="M142.876 11.751V14.6822H142.967C143.487 13.7733 144.182 12.9767 145.012 12.3386C145.622 11.8315 146.378 11.5335 147.169 11.4884C147.533 11.4848 147.897 11.5156 148.255 11.5804V18.027C147.776 17.9363 147.289 17.8902 146.801 17.8891C146.262 17.8614 145.723 17.9631 145.231 18.1858C144.739 18.4085 144.307 18.7457 143.972 19.1692C143.302 20.0248 142.967 21.2218 142.967 22.7602V31.5996H136.967V11.751H142.876Z" fill="black"/>
<path d="M154.394 4.94324H160.302V11.7509H163.135V17.1734H160.295V31.5995H154.387V17.1734H152.125V11.7509H154.387L154.394 4.94324Z" fill="black"/>
<path d="M179.849 31.5995V28.2056H179.757C179.023 29.3365 178.075 30.3132 176.967 31.0809C175.913 31.7023 174.704 32.0097 173.481 31.9672C171.157 31.9672 169.18 30.9671 167.55 28.9671C165.919 26.967 165.104 24.5326 165.104 21.6638C165.045 18.9979 165.974 16.4045 167.714 14.3834C169.453 12.3615 171.515 11.3494 173.898 11.3472C174.97 11.3317 176.029 11.5941 176.97 12.1087C178.051 12.7619 179.024 13.5804 179.852 14.5344V11.7969H185.76V31.5995H179.849ZM175.513 17.2654C174.95 17.2584 174.393 17.3808 173.884 17.6233C173.376 17.8657 172.93 18.2217 172.582 18.6636C171.775 19.655 171.356 20.9054 171.403 22.1824C171.349 23.3527 171.75 24.4986 172.522 25.3794C172.898 25.7828 173.357 26.0999 173.867 26.309C174.377 26.5181 174.926 26.6142 175.477 26.5906C176.049 26.593 176.615 26.4692 177.134 26.2281C177.653 25.987 178.113 25.6345 178.48 25.1956C179.309 24.2675 179.754 23.0588 179.724 21.8147C179.742 20.6277 179.295 19.4806 178.48 18.6177C178.113 18.1911 177.657 17.8493 177.145 17.6159C176.632 17.3824 176.076 17.2628 175.513 17.2654Z" fill="black"/>
<path d="M191.898 0.787842H197.807V31.5996H191.898V0.787842Z" fill="black"/>
<path d="M197.6 0H24.9463V5.9083H197.6V0Z" fill="black"/>
<path d="M6.56478 0.328247H0V31.5109H6.56478V0.328247Z" fill="black"/>
<path d="M0 24.9462L0 31.511L31.1827 31.511V24.9462H0Z" fill="black"/>
<path d="M0 4.3869e-05L0 6.56482L31.1827 6.56482V4.3869e-05L0 4.3869e-05Z" fill="black"/>
</svg>

<svg width="198" height="32" fill="none" xmlns="http://www.w3.org/2000/svg"><path d="M9.519 9.847V22.32h12.473V9.847H9.519zM24.966 1.313h6.545V31.6h-6.545V1.313zM43.521 11.75v3.162c.435-.32.843-.675 1.221-1.06.489-.48 1.01-.923 1.56-1.33a7.09 7.09 0 013.705-1.211 5.836 5.836 0 012.954.959c1.062.639 1.946 1.773 2.653 3.403 1.232-1.569 2.435-2.688 3.61-3.358a6.706 6.706 0 013.283-1.004c1.798 0 3.321.743 4.569 2.229a8.246 8.246 0 011.877 5.498v12.561h-5.908V20.59a4.267 4.267 0 00-.9-2.757 2.695 2.695 0 00-2.17-1.12 3.39 3.39 0 00-2.625 1.268 4.448 4.448 0 00-1.113 3.026V31.6h-5.862V20.866a4.655 4.655 0 00-.913-2.918 2.699 2.699 0 00-2.196-1.188 3.355 3.355 0 00-2.626 1.313 4.667 4.667 0 00-1.106 3.128v10.398h-5.967V11.752h5.954zM80.957 11.75v3.162c.434-.32.843-.675 1.22-1.06a14.12 14.12 0 011.56-1.33 7.068 7.068 0 013.702-1.211 5.82 5.82 0 012.954.959c1.064.639 1.95 1.773 2.656 3.403 1.232-1.569 2.435-2.688 3.61-3.358a6.727 6.727 0 013.283-1.004c1.803 0 3.326.743 4.569 2.229 1.243 1.486 1.867 3.313 1.871 5.481V31.6h-5.908V20.59a4.268 4.268 0 00-.9-2.757 2.695 2.695 0 00-2.17-1.12 3.39 3.39 0 00-2.625 1.268 4.448 4.448 0 00-1.106 3.026V31.6H87.81V20.866a4.655 4.655 0 00-.912-2.918 2.698 2.698 0 00-2.213-1.188 3.35 3.35 0 00-2.626 1.313 4.667 4.667 0 00-1.106 3.128v10.398H75V11.752h5.958zM111.628 21.72c0-3.064.977-5.564 2.931-7.5 1.954-1.937 4.462-2.907 7.523-2.909a9.618 9.618 0 017.165 2.954c1.933 1.97 2.899 4.42 2.899 7.35 0 2.987-.966 5.464-2.899 7.43-1.932 1.968-4.351 2.953-7.257 2.955-3.282 0-5.828-1.042-7.638-3.125a10.606 10.606 0 01-2.724-7.155zm14.701 0a5.148 5.148 0 00-1.313-3.506 3.964 3.964 0 00-3.069-1.5 4.147 4.147 0 00-3.124 1.408 4.754 4.754 0 00-1.313 3.368 5.365 5.365 0 001.313 3.647 3.993 3.993 0 003.101 1.5 4.006 4.006 0 003.119-1.464 5.006 5.006 0 001.286-3.453zM142.876 11.751v2.931h.091a7.912 7.912 0 012.045-2.343 3.704 3.704 0 012.157-.85 5.78 5.78 0 011.086.091v6.447a7.913 7.913 0 00-1.454-.138 3.388 3.388 0 00-2.829 1.28c-.67.856-1.005 2.053-1.005 3.591v8.84h-6V11.75h5.909zM154.394 4.943h5.908v6.808h2.833v5.422h-2.84V31.6h-5.908V17.172h-2.262v-5.422h2.262l.007-6.808zM179.849 31.6v-3.394h-.092a10.36 10.36 0 01-2.79 2.875 6.424 6.424 0 01-3.486.886c-2.324 0-4.301-1-5.931-3-1.631-2-2.446-4.434-2.446-7.303-.059-2.666.87-5.26 2.61-7.28 1.739-2.023 3.801-3.035 6.184-3.037a6.217 6.217 0 013.072.762 12.108 12.108 0 012.882 2.425v-2.737h5.908v19.802h-5.911zm-4.336-14.335a3.68 3.68 0 00-2.931 1.399 5.267 5.267 0 00-1.179 3.518 4.533 4.533 0 001.119 3.197 3.82 3.82 0 002.955 1.212 3.895 3.895 0 003.003-1.395 4.898 4.898 0 001.244-3.381 4.556 4.556 0 00-1.244-3.197 3.89 3.89 0 00-2.967-1.353zM191.898.788h5.909V31.6h-5.909V.788z" fill="#000"/><path d="M197.6 0H24.946v5.908H197.6V0zM6.565.328H0v31.183h6.565V.328z" fill="#000"/><path d="M0 24.946v6.565h31.183v-6.565H0zM0 0v6.565h31.183V0H0z" fill="#000"/></svg>
